!!!SOCIAL_FUNCTION:	songs connected with war and hunting
!!!PDT:	1932
!!!OTL: No_37_Song_After_the_Feast.krn
!!!REG: Wisconsin
!!!LANG: Non-Tone
!!!LING_GROUP: Algonquin
**kern
*staff1
=1-
*clefF4
*k[b-e-a-d-]
*M2/4
4r
8r
16r
16c\
=2
8c\L
16.A-\L
32F\JJk
8.F\L
16G\Jk
=3||
*M3/4
8G\L
16.A-\L
32F\JJk
8.F\L
16F\Jk
8F\
16r
16G\
=4||
*M2/4
8G\L
16.F\L
32E-\JJk
8.E-/L
16C/Jk
=5||
*M3/4
8F\L
16.E-\L
32C\JJk
8.C/L
16C/Jk
8C/
16r
16F\
=6||
*M2/4
8F\L
16.G\L
32F\JJk
8.F\L
16F\Jk
=7||
*M3/4
8F\L
16.A-\L
32F\JJk
8.F\L
16F\Jk
8F\
8r
==
*-
